src/lib/assets/emojis/memo.svg

<svg xmlns="http://www.w3.org/2000/svg" data-name="Layer 1" style="" viewBox="0 0 512 512"><g class="nc-icon-wrapper"><defs><linearGradient id="1776867898097-8318312_linear-gradient" x1="390.66" x2="263.64" y1="433.09" y2="348.19" gradientTransform="matrix(1 0 0 -1 0 514)" gradientUnits="userSpaceOnUse"><stop offset="0" stop-color="#4e5e67"></stop><stop offset=".04" stop-color="#5b6a72"></stop><stop offset=".19" stop-color="#859198"></stop><stop offset=".35" stop-color="#a8b1b7"></stop><stop offset=".51" stop-color="#c3cbd0"></stop><stop offset=".67" stop-color="#d7dde1"></stop><stop offset=".83" stop-color="#e2e7ec"></stop><stop offset="1" stop-color="#e6ebef"></stop></linearGradient><linearGradient id="1776867898097-8318312_linear-gradient-2" x1="488.75" x2="424.41" y1="80.48" y2="144.82" gradientTransform="matrix(0 -1 -1 0 439.06 559.32)" gradientUnits="userSpaceOnUse"><stop offset="0" stop-color="#d3d7db"></stop><stop offset=".02" stop-color="#d6dade"></stop><stop offset=".16" stop-color="#e9ebed"></stop><stop offset=".32" stop-color="#f5f6f7"></stop><stop offset=".54" stop-color="#fdfdfd"></stop><stop offset="1" stop-color="#fff"></stop></linearGradient><linearGradient id="1776867898097-8318312_linear-gradient-3" x1="508" x2="473.57" y1="219.62" y2="254.98" gradientTransform="matrix(1 0 0 -1 -28.02 500.38)" gradientUnits="userSpaceOnUse"><stop offset="0" stop-color="#6e787a"></stop><stop offset=".61" stop-color="#d6dbde"></stop><stop offset=".69" stop-color="#d2d8da"></stop><stop offset=".77" stop-color="#c7cdd0"></stop><stop offset=".84" stop-color="#b4bbbe"></stop><stop offset=".91" stop-color="#9aa2a4"></stop><stop offset=".98" stop-color="#788284"></stop><stop offset="1" stop-color="#6e787a"></stop></linearGradient><linearGradient id="1776867898097-8318312_linear-gradient-4" x1="317.43" x2="290.23" y1="401.51" y2="429.45" gradientTransform="scale(1 -1) rotate(-45 -422.584 -120.89)" gradientUnits="userSpaceOnUse"><stop offset="0" stop-color="#6e787a"></stop><stop offset=".61" stop-color="#d6dbde"></stop><stop offset=".69" stop-color="#d2d8da"></stop><stop offset=".77" stop-color="#c7cdd0"></stop><stop offset=".84" stop-color="#b4bbbe"></stop><stop offset=".91" stop-color="#9aa2a4"></stop><stop offset=".98" stop-color="#788284"></stop><stop offset="1" stop-color="#6e787a"></stop></linearGradient><linearGradient id="1776867898097-8318312_linear-gradient-5" x1="317.43" x2="290.23" y1="395.53" y2="423.48" gradientTransform="scale(1 -1) rotate(-45 -422.584 -120.89)" gradientUnits="userSpaceOnUse"><stop offset="0" stop-color="#6e787a"></stop><stop offset=".61" stop-color="#d6dbde"></stop><stop offset=".69" stop-color="#d2d8da"></stop><stop offset=".77" stop-color="#c7cdd0"></stop><stop offset=".84" stop-color="#b4bbbe"></stop><stop offset=".91" stop-color="#9aa2a4"></stop><stop offset=".98" stop-color="#788284"></stop><stop offset="1" stop-color="#6e787a"></stop></linearGradient><linearGradient id="1776867898097-8318312_linear-gradient-6" x1="317.43" x2="290.23" y1="389.56" y2="417.5" gradientTransform="scale(1 -1) rotate(-45 -422.584 -120.89)" gradientUnits="userSpaceOnUse"><stop offset="0" stop-color="#6e787a"></stop><stop offset=".61" stop-color="#d6dbde"></stop><stop offset=".69" stop-color="#d2d8da"></stop><stop offset=".77" stop-color="#c7cdd0"></stop><stop offset=".84" stop-color="#b4bbbe"></stop><stop offset=".91" stop-color="#9aa2a4"></stop><stop offset=".98" stop-color="#788284"></stop><stop offset="1" stop-color="#6e787a"></stop></linearGradient><linearGradient id="1776867898097-8318312_linear-gradient-7" x1="300.58" x2="324.06" y1="72.78" y2="46.61" gradientTransform="matrix(1 0 0 -1 -28.02 500.38)" gradientUnits="userSpaceOnUse"><stop offset="0" stop-color="#fed0ac"></stop><stop offset=".25" stop-color="#fccda8"></stop><stop offset=".5" stop-color="#f5c39b"></stop><stop offset=".77" stop-color="#ebb286"></stop><stop offset="1" stop-color="#de9e6d"></stop></linearGradient><linearGradient id="1776867898097-8318312_linear-gradient-8" x1="287.82" x2="301.53" y1="48.13" y2="34.73" gradientTransform="matrix(1 0 0 -1 -28.02 500.38)" gradientUnits="userSpaceOnUse"><stop offset="0" stop-color="#4e5e67"></stop><stop offset=".37" stop-color="#3f4450"></stop><stop offset=".74" stop-color="#343241"></stop><stop offset="1" stop-color="#302c3b"></stop></linearGradient><radialGradient id="1776867898097-8318312_radial-gradient" cx="476.54" cy="278.84" r="29.65" fx="476.54" fy="278.84" gradientTransform="matrix(.97607 -.08763 .08713 -.98172 -7.44 541.36)" gradientUnits="userSpaceOnUse"><stop offset="0" stop-color="#ff709b"></stop><stop offset=".26" stop-color="#f96d97"></stop><stop offset=".61" stop-color="#e8638b"></stop><stop offset="1" stop-color="#cc5478"></stop></radialGradient></defs><path d="M409.58 512V185.19C409.58 130.09 294.76 0 263.39 0H0v512z" fill="#e6ebef"></path><path d="M263.39.13c29.39 0 146.19 116.1 146.19 185.06V371.2S-46.75 312.57 58.5 0l204.9.13Z" fill="url(#1776867898097-8318312_linear-gradient)"></path><path d="M40 56h96v8H40zM40 128h320v8H40zM40 160h320v8H40zM40 192h320v8H40zM40 224h320v8H40zM40 256h288v8H40zM40 328h176v8H40zM40 360h320v8H40zM40 392h320v8H40zM40 424h112v8H40zM40 456h48v8H40z" class="cls-11" fill="#99a8ae"></path><path d="M263.39.13c39.18 0 146.19 110.42 146.19 185.06 0 0-11.74-71.09-121.22-56.16C301.85 43.7 276.79 2.09 263.39.13" fill="url(#1776867898097-8318312_linear-gradient-2)"></path><path d="M266.24 323.45h221.8v49.52h-221.8z" transform="rotate(-45 377.144 348.212)" fill="#f9c802"></path><path d="m504.97 224.8-4.45-4.44c-8.46-8.44-20.36-10.22-30.44-.14l-15.14 15.15 35 35.02 15.15-15.15c10.09-10.08 8.3-21.99-.13-30.44Z" fill="url(#1776867898097-8318312_radial-gradient)"></path><path d="m489.95 270.39-35.01-35.02-19.87 19.85 35.03 35.03z" fill="url(#1776867898097-8318312_linear-gradient-3)"></path><path d="M489.95 270.39c-6-6.01-28.4-28.42-35.02-35.02-1.5-1.5-5.72 2.72-4.22 4.22 5.93 5.95 26.74 26.74 35.02 35.02 1.5 1.51 5.72-2.72 4.22-4.22" fill="url(#1776867898097-8318312_linear-gradient-4)"></path><path d="M485.74 274.61c-5.99-6-28.42-28.41-35.02-35.02-1.5-1.5-5.73 2.73-4.22 4.22 5.94 5.95 26.75 26.74 35.02 35.02 1.51 1.5 5.72-2.71 4.22-4.22" fill="url(#1776867898097-8318312_linear-gradient-5)"></path><path d="m481.5 278.83-35.02-35.02c-1.5-1.5-5.72 2.71-4.22 4.22 5.94 5.95 26.74 26.74 35.02 35.02 1.5 1.5 5.74-2.72 4.22-4.22" fill="url(#1776867898097-8318312_linear-gradient-6)"></path><path d="M254.3 330.12h217.59v14.01H254.3z" transform="rotate(-44.98 363.053 337.105)" fill="#ffe463"></path><path d="M279.43 355.21h217.6v14.02h-217.6z" transform="rotate(-45.02 388.283 362.24)" fill="#ea8800"></path><path d="m281.22 409.1-20.51 45.04 10.42 10.51 45.1-20.54c.98-11.01-8.41-5.42-7.8-12.02.53-5.9-9.29-15.73-15.2-15.2-7.53.67-.95-8.79-12.02-7.8Z" fill="url(#1776867898097-8318312_linear-gradient-7)"></path><path d="M257.11 462.02c-2.83 6.26-.04 9.04 6.19 6.21l21.87-9.96-18.1-18.11-9.97 21.86Z" fill="url(#1776867898097-8318312_linear-gradient-8)"></path></g></svg>

<svg xmlns="http://www.w3.org/2000/svg" style="" viewBox="0 0 511.99 512"><g class="nc-icon-wrapper"><defs><linearGradient id="1776131386646-5082743_linear-gradient" x1="390.66" y1="646.91" x2="263.65" y2="731.81" gradientTransform="translate(0 -566)" gradientUnits="userSpaceOnUse"><stop offset="0" stop-color="#4e5e67"></stop><stop offset=".04" stop-color="#5b6a72"></stop><stop offset=".19" stop-color="#859198"></stop><stop offset=".35" stop-color="#a8b1b7"></stop><stop offset=".51" stop-color="#c3cbd0"></stop><stop offset=".67" stop-color="#d7dde1"></stop><stop offset=".83" stop-color="#e2e7ec"></stop><stop offset="1" stop-color="#e6ebef"></stop></linearGradient><linearGradient id="1776131386646-5082743_linear-gradient-2" x1="-1009.25" y1="1419.51" x2="-1073.6" y2="1355.16" gradientTransform="rotate(-90 -999.805 61.125)" gradientUnits="userSpaceOnUse"><stop offset="0" stop-color="#d3d7db"></stop><stop offset=".02" stop-color="#d6dade"></stop><stop offset=".16" stop-color="#e9ebed"></stop><stop offset=".32" stop-color="#f5f6f7"></stop><stop offset=".54" stop-color="#fdfdfd"></stop><stop offset="1" stop-color="#fff"></stop></linearGradient><radialGradient id="1776131386646-5082743_radial-gradient" cx="556.88" cy="904.9" fx="556.88" fy="904.9" r="29.65" gradientTransform="matrix(.97607 -.08763 -.08624 .99168 17.23 -613.61)" gradientUnits="userSpaceOnUse"><stop offset="0" stop-color="#ff709b"></stop><stop offset=".26" stop-color="#f96d97"></stop><stop offset=".61" stop-color="#e8638b"></stop><stop offset="1" stop-color="#cc5478"></stop></radialGradient><linearGradient id="1776131386646-5082743_linear-gradient-3" x1="508" y1="860.38" x2="473.58" y2="825.01" gradientTransform="translate(-28.02 -579.62)" gradientUnits="userSpaceOnUse"><stop offset="0" stop-color="#6e787a"></stop><stop offset=".61" stop-color="#d6dbde"></stop><stop offset=".69" stop-color="#d2d8da"></stop><stop offset=".77" stop-color="#c7cdd0"></stop><stop offset=".84" stop-color="#b4bbbe"></stop><stop offset=".91" stop-color="#9aa2a4"></stop><stop offset=".98" stop-color="#788284"></stop><stop offset="1" stop-color="#6e787a"></stop></linearGradient><linearGradient id="1776131386646-5082743_linear-gradient-4" x1="417.68" y1="-157.49" x2="390.47" y2="-185.44" gradientTransform="rotate(45 -77.908 121.89)" gradientUnits="userSpaceOnUse"><stop offset="0" stop-color="#6e787a"></stop><stop offset=".61" stop-color="#d6dbde"></stop><stop offset=".69" stop-color="#d2d8da"></stop><stop offset=".77" stop-color="#c7cdd0"></stop><stop offset=".84" stop-color="#b4bbbe"></stop><stop offset=".91" stop-color="#9aa2a4"></stop><stop offset=".98" stop-color="#788284"></stop><stop offset="1" stop-color="#6e787a"></stop></linearGradient><linearGradient id="1776131386646-5082743_linear-gradient-5" x1="417.68" y1="-151.52" x2="390.48" y2="-179.46" gradientTransform="rotate(45 -77.908 121.89)" gradientUnits="userSpaceOnUse"><stop offset="0" stop-color="#6e787a"></stop><stop offset=".61" stop-color="#d6dbde"></stop><stop offset=".69" stop-color="#d2d8da"></stop><stop offset=".77" stop-color="#c7cdd0"></stop><stop offset=".84" stop-color="#b4bbbe"></stop><stop offset=".91" stop-color="#9aa2a4"></stop><stop offset=".98" stop-color="#788284"></stop><stop offset="1" stop-color="#6e787a"></stop></linearGradient><linearGradient id="1776131386646-5082743_linear-gradient-6" x1="417.68" y1="-145.54" x2="390.48" y2="-173.48" gradientTransform="rotate(45 -77.908 121.89)" gradientUnits="userSpaceOnUse"><stop offset="0" stop-color="#6e787a"></stop><stop offset=".61" stop-color="#d6dbde"></stop><stop offset=".69" stop-color="#d2d8da"></stop><stop offset=".77" stop-color="#c7cdd0"></stop><stop offset=".84" stop-color="#b4bbbe"></stop><stop offset=".91" stop-color="#9aa2a4"></stop><stop offset=".98" stop-color="#788284"></stop><stop offset="1" stop-color="#6e787a"></stop></linearGradient><linearGradient id="1776131386646-5082743_linear-gradient-7" x1="300.59" y1="1007.22" x2="324.06" y2="1033.39" gradientTransform="translate(-28.02 -579.62)" gradientUnits="userSpaceOnUse"><stop offset="0" stop-color="#fed0ac"></stop><stop offset=".25" stop-color="#fccda8"></stop><stop offset=".5" stop-color="#f5c39b"></stop><stop offset=".77" stop-color="#ebb286"></stop><stop offset="1" stop-color="#de9e6d"></stop></linearGradient><linearGradient id="1776131386646-5082743_linear-gradient-8" x1="287.82" y1="1031.87" x2="301.53" y2="1045.27" gradientTransform="translate(-28.02 -579.62)" gradientUnits="userSpaceOnUse"><stop offset="0" stop-color="#4e5e67"></stop><stop offset=".37" stop-color="#3f4450"></stop><stop offset=".74" stop-color="#343241"></stop><stop offset="1" stop-color="#302c3b"></stop></linearGradient></defs><path class="cls-14" d="M409.59,512V185.19C409.59,130.09,294.76,0,263.39,0H0v512h409.59Z" fill="#e6ebef"></path><path class="cls-12" d="M263.39.13c29.39,0,146.19,116.11,146.19,185.07v186.01S-46.75,312.57,58.5,0l204.9.13h0Z" fill="url(#1776131386646-5082743_linear-gradient)"></path><path class="cls-11" d="M40 56H136V64H40z" fill="#99a8ae"></path><path class="cls-11" d="M40 128H360V136H40z" fill="#99a8ae"></path><path class="cls-11" d="M40 160H360V168H40z" fill="#99a8ae"></path><path class="cls-11" d="M40 192H360V200H40z" fill="#99a8ae"></path><path class="cls-11" d="M40 224H360V232H40z" fill="#99a8ae"></path><path class="cls-11" d="M40 256H328V264H40z" fill="#99a8ae"></path><path class="cls-11" d="M40 328H216V336H40z" fill="#99a8ae"></path><path class="cls-11" d="M40 360H360V368H40z" fill="#99a8ae"></path><path class="cls-11" d="M40 392H360V400H40z" fill="#99a8ae"></path><path class="cls-11" d="M40 424H152V432H40z" fill="#99a8ae"></path><path class="cls-11" d="M40 456H88V464H40z" fill="#99a8ae"></path><path class="cls-9" d="M263.39.13c39.18,0,146.19,110.42,146.19,185.07,0,0-11.74-71.09-121.23-56.16C301.85,43.7,276.79,2.09,263.39.13Z" fill="url(#1776131386646-5082743_linear-gradient-2)"></path><path class="cls-2" transform="rotate(-45 377.144 348.212)" d="M266.24 323.45H488.04V372.96999999999997H266.24z" fill="#f9c802"></path><path class="cls-10" d="M504.97,224.8l-4.45-4.44c-8.46-8.44-20.36-10.22-30.44-.14l-15.14,15.15,35,35.02,15.15-15.15c10.09-10.08,8.3-21.99-.13-30.44h.01Z" fill="url(#1776131386646-5082743_radial-gradient)"></path><path class="cls-8" d="M489.96 270.39L454.94 235.37 435.08 255.23 470.11 290.25 489.96 270.39z" fill="url(#1776131386646-5082743_linear-gradient-3)"></path><path class="cls-7" d="M489.96,270.39c-6-6.01-28.4-28.42-35.02-35.02-1.5-1.5-5.72,2.72-4.22,4.22,5.93,5.95,26.74,26.74,35.02,35.02,1.5,1.51,5.72-2.72,4.22-4.22Z" fill="url(#1776131386646-5082743_linear-gradient-4)"></path><path class="cls-5" d="M485.74,274.61c-5.99-6-28.42-28.41-35.02-35.02-1.5-1.5-5.73,2.73-4.22,4.22,5.94,5.95,26.75,26.74,35.02,35.02,1.51,1.5,5.72-2.71,4.22-4.22Z" fill="url(#1776131386646-5082743_linear-gradient-5)"></path><path class="cls-6" d="M481.51,278.83c-6-6-28.41-28.41-35.02-35.02-1.5-1.5-5.72,2.71-4.22,4.22,5.94,5.95,26.74,26.74,35.02,35.02,1.5,1.5,5.74-2.72,4.22-4.22Z" fill="url(#1776131386646-5082743_linear-gradient-6)"></path><path class="cls-1" transform="rotate(-44.98 363.099 337.096)" d="M254.3 330.08H471.89V344.09H254.3z" fill="#ffe463"></path><path class="cls-13" transform="rotate(-45.02 388.232 362.26)" d="M279.43 355.25H497.03V369.27H279.43z" fill="#ea8800"></path><path class="cls-4" d="M281.23,409.11l-20.51,45.04,10.42,10.51,45.1-20.54c.98-11.01-8.41-5.42-7.8-12.02.53-5.9-9.29-15.73-15.2-15.2-7.53.67-.95-8.79-12.02-7.8h0Z" fill="url(#1776131386646-5082743_linear-gradient-7)"></path><path class="cls-3" d="M257.11,462.02c-2.83,6.26-.04,9.04,6.19,6.21l21.87-9.96-18.1-18.11-9.97,21.86h.01Z" fill="url(#1776131386646-5082743_linear-gradient-8)"></path></g></svg>
